X:0056
T:Quick Step Genl. Burgoynes.
M:6/8
L:1/8
Q:3/8=84
I: :: :: :: ::
% D ^F G A B ^c d e ^f g a b
Z:Jack Campin * www.campin.me.uk * 2009
K:D
g   |f2g aba|agf efg|fed c2d|e3  A2
g   |f2g aba|agf efg|fed Adc|d3  D2:|
G   |FAd FAd|B2B B2c|Ace Ace|d3  d2
G   |FAd FAd|B3  B2c|Bgf edc|d3  D2:|
f/g/|a2g fed|e2d cBA|Bcd efg|fed cB
A   |a2g fed|efd cBA|Bgf edc|d3  D2:|
A   |A3  AFA|BGB AFA|Bcd efg|fed cB
A   |A3  AFA|BGB AFA|Bgf edc|d3  D2:|

